X: 58
T:Flowers Of Edinburgh. HS.58
M:C|
Q:180
S:Henry Stables MS,Cumbria,late19thC
R:Hornpipe
O:Walthwaite,nr.Ambleside.
A:England
Z:vmp.Chris Partington
K:G
GE|D2DEG2GA|BGBd cBAG|AGFE DEFG|AF dF EGFE|!
D2DEG2GA|BGBdg2fe|dcBA GFGA|B2G2G2::!
d2|gfga gbag|fefg fagf|edef gfed|B2e2e2fg|!
dBAGd2Bd|edef g2fe|dcBA|GFGA|B2G2G2:||
% Output from ABC2Win  Version 2.1 k pre2 on 20/09/2003
